img/image/design/grad-6.svg

<svg width="1562" height="2069" fill="none" xmlns="http://www.w3.org/2000/svg"><g opacity=".3" filter="url(#a)"><path fill-rule="evenodd" clip-rule="evenodd" d="M1712.9 1069.44c-29.72 93.35-97.74 164.77-159.34 240.9-53.08 65.6-109.65 124.07-177.05 174.8-75.07 56.5-145.87 135.14-239.71 138.88-94.15 3.75-173.211-66.08-250.99-119.33-73.128-50.06-125.198-119.04-188.235-181.36-86.277-85.29-235.173-133.68-252.05-253.89-16.316-116.216 102.12-206.414 174.462-298.75 64.115-81.834 135.68-154.317 223.734-209.5 90.418-56.665 187.539-129.911 293.079-114.386 105.36 15.5 150.17 150.031 247.24 193.87 113.18 51.107 281.86-19.386 357.47 79.205 72.35 94.331 7.46 236.237-28.61 349.561Z" fill="url(#b)" fill-opacity=".5"/></g><defs><linearGradient id="b" x1="1774.27" y1="1034.43" x2="444" y2="1034.43" gradientUnits="userSpaceOnUse"><stop stop-color="#FF80E6"/><stop offset="1" stop-color="#FFA6ED" stop-opacity="0"/></linearGradient><filter id="a" x="0" y=".691" width="2218.27" height="2067.47" filterUnits="userSpaceOnUse" color-interpolation-filters="sRGB"><feFlood flood-opacity="0" result="BackgroundImageFix"/><feBlend in="SourceGraphic" in2="BackgroundImageFix" result="shape"/><feGaussianBlur stdDeviation="222" result="effect1_foregroundBlur_16656_166"/></filter></defs></svg>

<svg width="1562" height="2069" viewBox="0 0 1562 2069" fill="none" xmlns="http://www.w3.org/2000/svg">
<g opacity="0.3" filter="url(#filter0_f_16656_166)">
<path fill-rule="evenodd" clip-rule="evenodd" d="M1712.9 1069.44C1683.18 1162.79 1615.16 1234.21 1553.56 1310.34C1500.48 1375.94 1443.91 1434.41 1376.51 1485.14C1301.44 1541.64 1230.64 1620.28 1136.8 1624.02C1042.65 1627.77 963.589 1557.94 885.81 1504.69C812.682 1454.63 760.612 1385.65 697.575 1323.33C611.298 1238.04 462.402 1189.65 445.525 1069.44C429.209 953.224 547.645 863.026 619.987 770.69C684.102 688.856 755.667 616.373 843.721 561.19C934.139 504.525 1031.26 431.279 1136.8 446.804C1242.16 462.304 1286.97 596.835 1384.04 640.674C1497.22 691.781 1665.9 621.288 1741.51 719.879C1813.86 814.21 1748.97 956.116 1712.9 1069.44Z" fill="url(#paint0_linear_16656_166)" fill-opacity="0.5"/>
</g>
<defs>
<filter id="filter0_f_16656_166" x="0.000137329" y="0.691162" width="2218.27" height="2067.47" filterUnits="userSpaceOnUse" color-interpolation-filters="sRGB">
<feFlood flood-opacity="0" result="BackgroundImageFix"/>
<feBlend mode="normal" in="SourceGraphic" in2="BackgroundImageFix" result="shape"/>
<feGaussianBlur stdDeviation="222" result="effect1_foregroundBlur_16656_166"/>
</filter>
<linearGradient id="paint0_linear_16656_166" x1="1774.27" y1="1034.43" x2="444" y2="1034.43" gradientUnits="userSpaceOnUse">
<stop stop-color="#FF80E6"/>
<stop offset="1" stop-color="#FFA6ED" stop-opacity="0"/>
</linearGradient>
</defs>
</svg>
